X:36
T:36.  Old Devil
C:c 2003 Harry Bolick  
R:Breakdown
O:United States
A:Hastings On Hudson, New York
M:2/4
L:1/4
Q:80
K:G
 |: "G"  g/2>a/2 b/2>a/2 |g<d | "C"(c/4d/4)e/4(g/4  e/4)d/4(c/4A/4) |"G" d/2>c/2 B | 
G/2A/4(B/4 A/4)G/4(E/4D/4) | "F" =F/2>(G/2 A/2)A/2 | =F/2>(G/2 A/2)A/2| "G"   G/2>A/2 B/2B/2 |  G/2>A/2 B/2B/2:|
|: "G"  (G,/4B,/4)D/4G/4 (=F/4D/4)B,/4A,/4 | (G,/4B,/4)D/4G/4 (=F/4D/4)B,/4A,/4 | G/2>A/2 (B/4A/4) G/2| d/2>c/2 B |
  (G,/4B,/4)D/4G/4 (=F/4D/4)B,/4A,/4 | (G,/4B,/4)D/4G/4 (=F/4D/4)B,/4A,/4 | G/2A/2 (B/4A/4)G/2 | "D" A/2(F/2 "G" G):|
